!!!!SEGMENT: pl-wtm--r-247-n--003_noskowski-zygmunt--veni-creator.krn
!!!cenid: 18xx:2154
!!!COM: Noskowski, Zygmunt
!!!COM-rismID: pe106604
!!!CDT: 1846/05/02-1909/07/23
!!!CNT: Polish
!!!OTL: Veni creator
!!!PDT:
!!!AGN: Sacred
!!!YEC: Copyright 2022 Narodowy Instytut Fryderyka Chopina (https://polishscores.org)
!!!YEM: License CC-BY-4.0 (https://creativecommons.org/licenses/by/4.0)
!!!SMS-siglum: PL-Wtm
!!!SMS-shelfmark: R 247/N
!!!SMS-shelfwork: 003 W
!!!SMS-variant:
!!!SMS-altvar:
!!!NIFC-rismSourceID: 1001100560
!!!NIFC-rismChildID: 1001100560
!!!NIFC-islandoraID: pl-wtm:49873
!!!URL-pdf-islandora: https://repozytorium.nifc.pl/islandora/object/pl-wtm%3A49873/datastream/PDF/view
!!!URL-scan: https://polish.musicsources.pl/pl/lokalizacje/galeria/rekopisy/7841/1 @EN{Scan on Polish Music Sources Website} @PL{Skany w portalu Dziedzictwo Muzyki Polskiej w otwartym dostępie}
!!!IIIF:
!!!ONB-nifc: UWAGA: w zbiorze: 1. Salve Regina, 2. Nad mogiłą, 3. Veni creator
!!!AIN: 1 bass 1 tenor
!!!key:
**kern	**text	**text	**dynam	**kern	**text	**text	**dynam
*part2	*	*	*	*part1	*	*	*
*staff2	*	*	*	*staff1	*	*	*
*Ibass	*	*	*	*Itenor	*	*	*
*I"Basy 1o i 2do	*	*	*	*I"Tenory 1o i 2o	*	*	*
*clefF4	*	*	*	*clefG2	*	*	*
*k[b-e-a-d-g-]	*	*	*	*k[b-e-a-d-g-]	*	*	*
*D-:	*	*	*	*D-:	*	*	*
*M3/4	*	*	*	*M3/4	*	*	*
=1	=1	=1	=1	=1	=1	=1	=1
*^	*	*	*	*^	*	*	*
!	!	!	!	!	!LO:TX:a:i:t=Moderato con moto	!	!	!	!
!	!	!	!	!LO:DY:b:rj	!	!	!	!	!LO:DY:b:rj
(>4d-/	(<4D-\	Ve-	.	f	(<[>2.dd-/	4dd-\	Ve-	.	f
4A-/	4F\	.	.	.	.	4cc\	.	.	.
[>4G-/	8G-\L	.	.	.	.	[<4b-\	.	.	.
.	8F\J)	.	.	.	.	.	.	.	.
=2	=2	=2	=2	=2	=2	=2	=2	=2	=2
4G-/])	2E-\	-ni	.	.	4dd-/]	4b-\])	.	.	.
4G-/	.	.	.	.	4ee-/	4cc\	ni	.	.
4A-/	4D-\	.	.	.	4ff/	4dd-\	Cre-	.	.
=3	=3	=3	=3	=3	=3	=3	=3	=3	=3
(>4B-/	(<4BB-\	.	.	.	2gg-/	(<4dd-\	-a-	.	.
4A-/)	4C\)	.	.	.	.	4ee-\)	.	.	.
4A-/	4D-\	.	.	.	4ff/	4dd-\	tor	.	.
=4	=4	=4	=4	=4	=4	=4	=4	=4	=4
[>2.A-/	(<2A-\	.	.	.	(>2.ee-/	(<2.cc\	Spi-	.	.
.	4G-\	.	.	.	.	.	.	.	.
=5	=5	=5	=5	=5	=5	=5	=5	=5	=5
2A-/]	2F\)	.	.	.	2ff/)	2dd-\)	.	.	.
4Gn/	4E-\	.	.	.	4dd-/	4b-\	-ri-	.	.
=6	=6	=6	=6	=6	=6	=6	=6	=6	=6
[>2A-/	[<2AA-\	.	.	.	[>2cc/	[<2a-\	-tus	.	.
8A-/]	8AA-\]	.	.	.	8cc/]	8a-\]	.	.	.
8r	8ryy	.	.	.	8r	8ryy	.	.	.
*	*	*	*	*	*v	*v	*	*	*
=7	=7	=7	=7	=7	=7	=7	=7	=7
!LO:TX:a:i:t=marcato	!	!	!	!	!	!	!	!
4A-/	4A-\	Men-	.	.	2.r	.	.	.
4A-/	4A-\	-tes	.	.	.	.	.	.
4B-/	4B-\	tu-	.	.	.	.	.	.
=8	=8	=8	=8	=8	=8	=8	=8	=8
*	*	*	*	*	*^	*	*	*
!	!	!	!	!	!LO:TX:a:i:t=marcato	!	!	!	!
(>4G-/	2G-\	-o-	.	.	4ee-/	4b-\	Men-	.	.
4A-/)	.	.	.	.	4ee-/	4cc\	-tes	.	.
4An/	4F\	-rum	.	.	4ff/	4cc\	tu-	.	.
!!LO:LB:g=original
=9	=9	=9	=9	=9	=9	=9	=9	=9	=9
(>2B-/	(<4BB-\	vi-	.	.	2dd-/	2b-\	-o-	.	.
.	4D-\	.	.	.	.	.	.	.	.
4F/	4F\)	.	.	.	4cc/	4an\	-rum	.	.
=10	=10	=10	=10	=10	=10	=10	=10	=10	=10
4B-/)	4B-\	-si	.	.	(>4dd-/	(<4b-\	vi-	.	.
2G-/	2E-\	ta	.	.	4ff/)	4dd-\)	.	.	.
.	.	.	.	.	(>8ee-/L	(<8cc\L	-si-	.	.
.	.	.	.	.	8dd-/J)	8b-\J)	.	.	.
=11	=11	=11	=11	=11	=11	=11	=11	=11	=11
4F/	4F\	Im-	.	.	4cc/	4an\	-ta	.	.
4r	4F\	-ple	.	.	4r	4ryy	.	.	.
4r	4G-\	su-	.	.	4r	4ryy	.	.	.
=12	=12	=12	=12	=12	=12	=12	=12	=12	=12
!	!	!	!	!	!	!	!	!	!LO:DY:b:rj
2.rB	(>2E-\	-per-	.	.	2.rgg	4cc\	Im-	.	f
.	.	.	.	.	.	4cc\	-ple	.	.
.	4F\)	.	.	.	.	4dd-\	su-	.	.
=13	=13	=13	=13	=13	=13	=13	=13	=13	=13
!	!	!	!	!	!	!	!	!	!LO:DY:a:rj
!	!	!	!	!	!	!LO:TX:a:t=P:problem=w źródle drugi teskt słowny (fragm. trwający 2 takty) zapisany nad partią Tenoru I (nad górną pięciolinią)	!	!	!
4r	2D-\	-na	.	.	4ff/	(<2b-\	-per-	Im-	f
4rA	.	.	.	.	4ff/	.	.	-ple	.
!	!	!	!	!LO:DY:a:rj	!	!	!	!	!
!	!LO:TX:a:t=P:problem=w źródle drugi teskt słowny (fragm. trwający 1,5 taktu) zapisany nad partią Basu I (nad dolną pięciolinią)	!	!	!	!	!	!	!	!
4B-/	4BB-\	su-	su-	f	4ggn/	4dd-\	.	su-	.
=14	=14	=14	=14	=14	=14	=14	=14	=14	=14
2An/	2C\	-per-	-per-	.	2ff/	2cc\)	.	-per-	.
4Gn/	4C\	-na	-na	.	4een/	4cc\	-na	-na	.
=15	=15	=15	=15	=15	=15	=15	=15	=15	=15
8.An/	8.F\	.	.	.	8.ff/	8.cc\	gra-	.	.
!LO:N:vis=8	!	!	!	!	!	!	!	!	!
16A/	16F\	.	.	.	16cc/	16cc\	-ti-	.	.
4A/	4F\	.	.	.	4cc/	4cc\	-a	.	.
!	!	!	!	!LO:DY:b:rj	!	!	!	!	!LO:DY:b:rj
4F/	4AAn\	.	.	p	4ee-X/	4cc\	Quae	.	p
=16	=16	=16	=16	=16	=16	=16	=16	=16	=16
(>4F/	(<4BB-\	.	.	.	(>4dd-/	(<4b-\	tu	.	.
4E-/)	4C\)	.	.	.	4an/)	4f\)	.	.	.
4F/	4D-\	.	.	.	4b-/	4b-\	cre-	.	.
!!LO:LB:g=original
=17	=17	=17	=17	=17	=17	=17	=17	=17	=17
2G-/	(<4E-\	.	.	.	(>4dd-/	(<4b-\	-as-	.	.
.	4G-\)	.	.	.	4an/)	4an\)	.	.	.
4G-/	4E-\	.	.	.	4b-/	4b-\	-ti	.	.
=18	=18	=18	=18	=18	=18	=18	=18	=18	=18
2E-/	(<4C\	.	.	.	2cc/	(<4g-\	pec-	.	.
.	(4AAn\)	.	.	.	.	4f\)	.	.	.
4E-/	4FF\	.	.	.	4dd-/	4an\	-to-	.	.
=19	=19	=19	=19	=19	=19	=19	=19	=19	=19
2D-/	2BB-\	.	.	.	2b-/	2f\	-ra.	.	.
4r	4ryy	.	.	.	4r	4ryy	.	.	.
=20	=20	=20	=20	=20	=20	=20	=20	=20	=20
!	!	!	!	!LO:DY:b:rj	!	!	!	!	!LO:DY:b:rj
2BB-/	2BB-\	.	.	p	2b-/	2b-\	Qui	.	p
4BB-/	4BB-\	.	.	.	4b-/	4a-X\	di-	.	.
=21	=21	=21	=21	=21	=21	=21	=21	=21	=21
2BB-/	2BB-\	.	.	.	2b-/	2e-\	-ce-	.	.
4BB-/	4BB-\	.	.	.	4b-/	4f\	-ris	.	.
=22	=22	=22	=22	=22	=22	=22	=22	=22	=22
2D-/	(<4GG-\	.	.	.	2b-/	2g-\	Pa-	.	.
.	4BB-\)	.	.	.	.	.	.	.	.
4E-/	4C-X\	.	.	.	4b-/	4g-\	-ra-	.	.
=23	=23	=23	=23	=23	=23	=23	=23	=23	=23
4F/	4D-\	.	.	.	4a-/	4f\	-cli-	.	.
4D-/	4BB-\	.	.	.	4b-/	4g-\	-tus	.	.
4E-/	4AA-\	.	.	.	4cc-X/	4a-\	Al-	.	.
=24	=24	=24	=24	=24	=24	=24	=24	=24	=24
!	!	!	!	!LO:HP:b	!	!	!	!	!LO:HP:a
4.G-/	4.GG-\	.	.	<	4.dd-/	4.b-\	-tis-	.	<
8G-/	8D-\	.	.	.	8b-/	8b-\	-si-	.	.
4G-/	4BB-\	.	.	[	4dd-/	4dd-\	-mi	.	[[
=25	=25	=25	=25	=25	=25	=25	=25	=25	=25
2G-/	2C-X\	.	.	.	(>4gg-/	(<4ee-\	do-	.	.
.	.	.	.	.	4ee-/)	4cc-X\)	.	.	.
4G-/	4E-\	.	.	.	4cc-X/	4g-\	-num	.	.
=26	=26	=26	=26	=26	=26	=26	=26	=26	=26
(>4F/	(<4F\	.	.	.	(>4a-/	(<4a-\	De-	.	.
!	!	!	!	!LO:HP:b	!	!	!	!	!LO:HP:a
4G-/	4E-\	.	.	>	4ee-/	4b-\	.	.	>
4A-/)	4F\)	.	.	.	4dd-/)	4a-\)	.	.	.
=27	=27	=27	=27	=27	=27	=27	=27	=27	=27
2G-/	2G-\	.	.	]	2b-/	2b-\	-i	.	]
4G-/	4r	.	.	.	4b-/	4r	Fons	.	.
=28	=28	=28	=28	=28	=28	=28	=28	=28	=28
2E-/	2.rGG	.	.	.	(<4cc-X/	2.re	vi-	.	.
.	.	.	.	.	4b-/)	.	.	.	.
4F/	.	.	.	.	4a-/	.	-vus,	.	.
=29	=29	=29	=29	=29	=29	=29	=29	=29	=29
*	*	*	*	*^	*	*	*	*	*
!	!	!	!	!LO:HP:a	!LO:HP:b	!	!	!	!	!LO:HP:a
2G-/	2BB-\	ig-	.	<	<	(>4dd-/	2.ra	ig-	.	<
.	.	.	.	.	.	4ee-/)	.	.	.	.
4G-/	4BB-\	-nis	.	[	[	4dd-/	.	-nis,	.	[
*	*	*	*	*v	*v	*	*	*	*	*
=30	=30	=30	=30	=30	=30	=30	=30	=30	=30
*	*	*	*	*	*	*	*	*	*^
*	*	*	*	*^	*	*	*	*	*	*
!	!	!	!	!LO:DY:a:rj	!LO:DY:b:rj	!	!	!	!	!LO:DY:a:rj	!LO:DY:b:rj
2A-/	2AA-\	.	.	f	f	2ccn/	2ccnX\	cha-	.	f	f
4A-/	4E-\	.	.	.	.	4gg-/	4cc\	-ri-	.	.	.
*	*	*	*	*v	*v	*	*	*	*	*	*
*	*	*	*	*	*	*	*	*	*v	*v
=31	=31	=31	=31	=31	=31	=31	=31	=31	=31
2A-/	2D-\	.	.	.	2ff/	2dd-\	-tas	.	.
4A-/	4F\	.	.	.	4dd-/	4dd-\	Et	.	.
=32	=32	=32	=32	=32	=32	=32	=32	=32	=32
4G-/	4G-\	.	.	.	4b-/	4b-\	spi-	.	.
4G-/	4E-\	.	.	.	4cc/	4a-\	-ri-	.	.
4F/	4F\	.	.	.	4dd-/	4a-\	-tu-	.	.
=33	=33	=33	=33	=33	=33	=33	=33	=33	=33
2G-/	2C\	.	.	.	(>4ee-/	(<4b-\	-a-	.	.
.	.	.	.	.	4ff/)	4a-\)	.	.	.
4G-/	4AA-\	.	.	.	4ee-/	4cc\	-lis	.	.
=34	=34	=34	=34	=34	=34	=34	=34	=34	=34
2.F/	2.D-\	.	.	.	2.dd-/	2.a-\	nunc-	.	.
=35	=35	=35	=35	=35	=35	=35	=35	=35	=35
2F/	2D-\	.	.	.	2a-/	2a-\	-tio	.	.
!	!	!	!	!LO:DY:b:rj	!	!	!	!	!LO:DY:b:rj
4BB-/	4BB-\	.	.	p	4b-/	4b-\	Tu	.	p
!!LO:LB:g=original
=36	=36	=36	=36	=36	=36	=36	=36	=36	=36
2BB-/	2BB-\	.	.	.	2b-/	2b-\	sep-	.	.
4BB-/	4BB-\	.	.	.	4b-/	4a-\	-ti-	.	.
=37	=37	=37	=37	=37	=37	=37	=37	=37	=37
2BB-/	2BB-\	.	.	.	2b-/	2e-\	-for-	.	.
4BB-/	4BB-\	.	.	.	4b-/	4f\	-mis	.	.
=38	=38	=38	=38	=38	=38	=38	=38	=38	=38
2D-/	(<4GG-\	.	.	.	2b-/	2g-\	mu-	.	.
.	4BB-\)	.	.	.	.	.	.	.	.
4E-/	4C-X\	.	.	.	4b-/	4g-\	-ne-	.	.
=39	=39	=39	=39	=39	=39	=39	=39	=39	=39
(>4F/	(<4D-\	.	.	.	(>4a-/	(<4f\	-re	.	.
4D-/)	4BB-\)	.	.	.	4b-/)	4g-\)	.	.	.
4E-/	4AA-\	.	.	.	4cc-X/	4a-\	Di-	.	.
=40	=40	=40	=40	=40	=40	=40	=40	=40	=40
4.G-/	4.GG-\	.	.	.	4.dd-/	4.b-\	-gi-	.	.
8G-/	8D-\	.	.	.	8b-/	8b-\	-tus	.	.
4G-/	4BB-\	.	.	.	4dd-/	4dd-\	Pa-	.	.
=41	=41	=41	=41	=41	=41	=41	=41	=41	=41
2G-/	2C-X\	.	.	.	(>4gg-/	(<4ee-\	-ter-	.	.
.	.	.	.	.	4ee-/)	4cc-X\)	.	.	.
4G-/	4E-\	.	.	.	4cc-X/	4g-\	-nae	.	.
=42	=42	=42	=42	=42	=42	=42	=42	=42	=42
(>4F/	(<4F\	.	.	.	(>4a-/	(<4a-\	dex-	.	.
4G-/)	4E-\)	.	.	.	4ee-/)	4b-\)	.	.	.
4A-/	4F\	.	.	.	4dd-/	4a-\	-te-	.	.
=43	=43	=43	=43	=43	=43	=43	=43	=43	=43
2G-/	2G-\	.	.	.	2b-/	2b-\	-rae	.	.
!	!	!	!	!LO:DY:b:rj	!	!	!	!	!LO:DY:b:rj
4G-/	4G-\	.	.	f	4dd-/	4b-\	Tu	.	f
=44	=44	=44	=44	=44	=44	=44	=44	=44	=44
4G-/	4E-\	.	.	.	4ee-/	4b-\	vi-	.	.
4F/	4F\	.	.	.	4dd-/	4an\	-te	.	.
4F/	4E-\	.	.	.	4ccn/	4a\	pro-	.	.
!!LO:LB:g=original
=45	=45	=45	=45	=45	=45	=45	=45	=45	=45
2F/	2D-\	.	.	.	(>4ff/	2b-\	-mes-	.	.
.	.	.	.	.	4gg-/)	.	.	.	.
4F/	4D-\	.	.	.	4ff/	4b-\	-sum	.	.
=46	=46	=46	=46	=46	=46	=46	=46	=46	=46
(>2Gn/	(<2C\	.	.	.	(>2een/	(<2b-\	Pa-	.	.
4B-/)	4Gn\)	.	.	.	4cc/)	4cc\)	.	.	.
=47	=47	=47	=47	=47	=47	=47	=47	=47	=47
2An/	2F\	.	.	.	2ff/	2cc\	-tris	.	.
4F/	4AAn\	.	.	.	4ee-X/	4cc\	Ser-	.	.
=48	=48	=48	=48	=48	=48	=48	=48	=48	=48
2F/	2BB-\	.	.	.	(>4dd-/	(<4b-\	-mo-	.	.
.	.	.	.	.	4cc/)	4an\)	.	.	.
4F/	4BB-\	.	.	.	4dd-/	4b-\	-ne	.	.
=49	=49	=49	=49	=49	=49	=49	=49	=49	=49
2E-/	2GG-\	.	.	.	(>4ee-/	2b-\	di-	.	.
.	.	.	.	.	4b-/)	.	.	.	.
4E-/	4GGn\	.	.	.	4dd-/	4b-\	-tans	.	.
=50	=50	=50	=50	=50	=50	=50	=50	=50	=50
2.E-/	2.AA-\	.	.	.	2.cc/	2.a-\	gut-	.	.
=51	=51	=51	=51	=51	=51	=51	=51	=51	=51
2.E-/	2.D-\	.	.	.	2.b-/	2.g-X\	-tu-	.	.
=52	=52	=52	=52	=52	=52	=52	=52	=52	=52
[>2.E-/	[<2.C\	.	.	.	[>2.a-/	[<2.g-\	-ra.	.	.
=53	=53	=53	=53	=53	=53	=53	=53	=53	=53
2E-;>/]	2C;<\]	.	.	.	2a-;>/]	2g-;<\]	.	.	.
4r	4ryy	.	.	.	4r	4ryy	.	.	.
=54	=54	=54	=54	=54	=54	=54	=54	=54	=54
!	!	!	!	!LO:DY:b:rj	!	!	!	!	!LO:DY:b:rj
(>4F/	(<4D-\	.	.	f	(>[>2.dd-/	(<4dd-\	De-	.	f
4A-/	4F\	.	.	.	.	4cc\	.	.	.
[>4G-/	8G-\L	.	.	.	.	[<4b-\	.	.	.
.	8F\J	.	.	.	.	.	.	.	.
=55	=55	=55	=55	=55	=55	=55	=55	=55	=55
2G-/])	2E-\)	.	.	.	4dd-/]	4b-\]	.	.	.
.	.	.	.	.	4ee-/)	4cc\)	.	.	.
4A-/	4D-\	.	.	.	4ff/	4dd-\	-o	.	.
!!LO:LB:g=original
=56	=56	=56	=56	=56	=56	=56	=56	=56	=56
(>4B-/	(<4BB-\	.	.	.	2gg-/	(<4dd-\	Pa-	.	.
4A-/)	4C\)	.	.	.	.	4ee-\)	.	.	.
4A-/	4D-\	.	.	.	4ff/	4dd-\	tri	.	.
=57	=57	=57	=57	=57	=57	=57	=57	=57	=57
2.A-/	(<2A-\	.	.	.	2.ee-/	2.cc\	sit	.	.
.	4G-\)	.	.	.	.	.	.	.	.
=58	=58	=58	=58	=58	=58	=58	=58	=58	=58
2A-/	2F\	.	.	.	2ff/	2dd-\	glo-	.	.
4Gn/	4E-\	.	.	.	4dd-/	4b-\	-ri-	.	.
=59	=59	=59	=59	=59	=59	=59	=59	=59	=59
[>2A-/	[<2AA-\	.	.	.	[>2cc/	[<2a-\	-a	.	.
8A-/]	8AA-\]	.	.	.	8cc/]	8a-\]	.	.	.
8r	8ryy	.	.	.	8r	8ryy	.	.	.
*	*	*	*	*	*v	*v	*	*	*
=60	=60	=60	=60	=60	=60	=60	=60	=60
!	!	!	!	!LO:DY:b:rj	!	!	!	!
4A-/	4A-\	Et	.	f	2.r	.	.	.
4A-/	4A-\	Fi-	.	.	.	.	.	.
4B-/	4B-\	-li-	.	.	.	.	.	.
=61	=61	=61	=61	=61	=61	=61	=61	=61
*	*	*	*	*	*^	*	*	*
!	!	!	!	!	!	!	!	!	!LO:DY:b:rj
!	!	!	!	!	!	!LO:TX:a:t=P:problem=w źródle drugi teskt słowny (fragm. trwający 3 1/3 taktu) zapisany nad partią Tenoru I (nad górną pięciolinią)	!	!	!
(>4G-/	2G-\	-o,	.	.	4ee-/	4b-\	Et	Et	f
4A-/)	.	.	.	.	4ee-/	4cc\	Fi-	Fi-	.
4An/	4F\	qui	.	.	4ff/	4cc\	-li-	-li-	.
=62	=62	=62	=62	=62	=62	=62	=62	=62	=62
2B-/	(<4BB-\	a	.	.	2dd-/	2b-\	-o	-o	.
.	4D-\)	.	.	.	.	.	.	.	.
!	!LO:TX:a:t=P:problem=w źródle drugi teskt słowny (fragm. trwający 1 taktu) zapisany nad partią Basu I (nad dolną pięciolinią)	!	!	!	!	!	!	!	!
4F/	4F\	mor-	mor-	.	4cc/	4an\	qui	qui	.
=63	=63	=63	=63	=63	=63	=63	=63	=63	=63
(>4B-/	4B-\	-tu-	-tu-	.	4dd-/	4b-\	a	a	.
2G-/)	2E-\	-is	.	.	4ff/	4dd-\	mor-	mor-	.
.	.	.	.	.	(>8ee-/L	(<8cc\L	-tu-	-tu-	.
.	.	.	.	.	8dd-/J)	8b-\J)	.	.	.
=64	=64	=64	=64	=64	=64	=64	=64	=64	=64
4F/	4F\	Sur-	-is	.	4cc/	4an\	-is	-is	.
4r	4F\	-re-	.	.	4r	4ryy	.	.	.
4r	4G-\	-xit	.	.	4r	4ryy	.	.	.
!!LO:PB:g=original
=65	=65	=65	=65	=65	=65	=65	=65	=65	=65
2.rA	(<2E-\	ac	.	.	2.rgg	4cc\	Sur-	.	.
.	.	.	.	.	.	4cc\	-re-	.	.
.	4F\)	.	.	.	.	4dd-\	-xit	.	.
=66	=66	=66	=66	=66	=66	=66	=66	=66	=66
!	!	!	!	!LO:DY:a:rj	!	!	!	!	!LO:DY:a:rj
!LO:TX:a:t=P:problem=w źródle drugi teskt słowny (fragm. trwający 7 taktów) zapisany nad partią Basu I (nad dolną pięciolinią)	!	!	!	!	!	!LO:TX:a:t=P:problem=w źródle drugi teskt słowny (fragm. trwający 7 taktó) zapisany nad partią Tenoru I (nad górną pięciolinią)	!	!	!
4B-/	(<2D-\	Pa-	Sur-	f	4ff/	(<2b-\	ac	Sur-	f
4F/	.	.	-re-	.	4ff/	.	.	-re-	.
4B-/	4BB-\	.	-xit	.	4ggn/	4dd-\)	.	-xit	.
=67	=67	=67	=67	=67	=67	=67	=67	=67	=67
2.An/	[<2.C\)	.	ac	.	2.ff/	[<2.cc\	Pa-	ac	.
=68	=68	=68	=68	=68	=68	=68	=68	=68	=68
2Gn/	2C\]	.	Pa-	.	2een/	2cc\]	.	Pa-	.
4B-/	4GnX\	-ra-	-ra-	.	4ee/	4cc\	-ra-	-ra-	.
=69	=69	=69	=69	=69	=69	=69	=69	=69	=69
(>2.An/	(<2.F\	-cli-	-cli-	.	(>2.ff/	(<2.cc\	-cli-	-cli-	.
=70	=70	=70	=70	=70	=70	=70	=70	=70	=70
2.B-/	2.E-\	.	.	.	2.gg-X/	2.dd-\	.	.	.
=71	=71	=71	=71	=71	=71	=71	=71	=71	=71
2.A-/)	2.A-\)	.	.	.	2.ee-/)	2.cc\)	.	.	.
=72	=72	=72	=72	=72	=72	=72	=72	=72	=72
2.A-/	2.D-\	-to	-to	.	2.ff/	2.cc\	-to	-to	.
=73	=73	=73	=73	=73	=73	=73	=73	=73	=73
2.G-/	2.G-\	.	.	.	2.dd-/	2.b-\	In	.	.
=74	=74	=74	=74	=74	=74	=74	=74	=74	=74
2G-/	2C\	.	.	.	2ee-/	2b-\	sae-	.	.
4F/	4D-\	.	.	.	4dd-/	4a-\	-cu-	.	.
!!LO:LB:g=original
=75	=75	=75	=75	=75	=75	=75	=75	=75	=75
2.B-/	2.GG-\	.	.	.	2.ff/	2.dd-\	-lo-	.	.
=76	=76	=76	=76	=76	=76	=76	=76	=76	=76
2.E-/	2.GGn\	.	.	.	2.dd-/	2.b-\	-rum	.	.
=77	=77	=77	=77	=77	=77	=77	=77	=77	=77
[>2.E-/	(<2.AA-\	.	.	.	(>2.cc/	(<2.a-\	sae-	.	.
=78	=78	=78	=78	=78	=78	=78	=78	=78	=78
2.E-/]	2.D-\)	.	.	.	2.b-/)	2.g-X\)	.	.	.
=79	=79	=79	=79	=79	=79	=79	=79	=79	=79
2.E-/	2.C\	.	.	.	2.a-/	2.g-\	-cu-	.	.
=80	=80	=80	=80	=80	=80	=80	=80	=80	=80
!LO:N:vis=2	!	!	!	!	!	!	!	!	!
2.G-/	2.AA-\	.	.	.	2.ee-/	2.cc\	-la.	.	.
=81	=81	=81	=81	=81	=81	=81	=81	=81	=81
(>4F/	(<4D-\	.	.	.	(>[>2.dd-/	(<4dd-\	A-	.	.
4A-/	4F\	.	.	.	.	4cc\	.	.	.
[>4G-/	8G-\L	.	.	.	.	[<4b-\	.	.	.
.	8F\J	.	.	.	.	.	.	.	.
=82	=82	=82	=82	=82	=82	=82	=82	=82	=82
2G-/]	2E-\	.	.	.	4dd-/]	4b-\]	.	.	.
.	.	.	.	.	4ee-/	4cc\	.	.	.
4A-/	4D-\	.	.	.	4ff/	[4dd-\	.	.	.
=83	=83	=83	=83	=83	=83	=83	=83	=83	=83
2B-/	2BB-\	.	.	.	2.gg-/)	2dd-\]	.	.	.
4A-/)	4C\)	.	.	.	.	4ee-\)	.	.	.
=84	=84	=84	=84	=84	=84	=84	=84	=84	=84
2.A-/	2.D-\	.	.	.	2.ff/	2.dd-\	men	.	.
!!LO:LB:g=original
=85	=85	=85	=85	=85	=85	=85	=85	=85	=85
(>2.G-/	(<2.G-\	.	.	.	(>[>2.ee-/	([<2.b-\	A-	.	.
=86	=86	=86	=86	=86	=86	=86	=86	=86	=86
(>2.Gn/)	2.E-\	.	.	.	2.ee-/]	2.b-\]	.	.	.
=87	=87	=87	=87	=87	=87	=87	=87	=87	=87
2.A-/	[<2.AA-\)	.	.	.	2.ff/	[<2.cc\	.	.	.
=88	=88	=88	=88	=88	=88	=88	=88	=88	=88
2.G-X/)	2.AA-\]	.	.	.	2.ee-/)	2.cc\])	.	.	.
=89	=89	=89	=89	=89	=89	=89	=89	=89	=89
[>2.F/	[<2.D-\	.	.	.	[>2.dd-/	[<2.a-\	-men.	.	.
=90	=90	=90	=90	=90	=90	=90	=90	=90	=90
2.F/_>	2.D-\_<	.	.	.	2.dd-/_>	2.a-\_<	.	.	.
=91	=91	=91	=91	=91	=91	=91	=91	=91	=91
2.F;>/_>	2.D-;<\_<	.	.	.	2.dd-;>/_>	2.a-;<\_<	.	.	.
=92	=92	=92	=92	=92	=92	=92	=92	=92	=92
4F/]	4D-\]	.	.	.	4dd-/]	4a-\]	.	.	.
4r	4ryy	.	.	.	4r	4ryy	.	.	.
4r	4ryy	.	.	.	4r	4ryy	.	.	.
*v	*v	*	*	*	*	*	*	*	*
*	*	*	*	*v	*v	*	*	*
==	==	==	==	==	==	==	==
*-	*-	*-	*-	*-	*-	*-	*-
!!!system-decoration: {(s1,s2)}
!!!RDF**kern: > = above
!!!RDF**kern: < = below
!!!EED: Antoni Szymański
!!!EEV: 2021-06-01
!!!ENC: Marcin Jachim
!!!END: 2021-05-23
